X:1
T:Title
%%score 1 2 3
L:1/8
M:3/2
K:C
V:1 treble nm="Part_1"
V:2 treble-8 nm="Part_2"
V:3 treble-8 nm="Part_3"
V:1
 G8 G4 | A6 B2 A2 G2 | B8 A4 | c4 c8 | B2 A2 G4 F2 E2 | G4 z4 z4 | F4 A6 G2 | G6 E2 F2 E2 | %8
 D4 D2 C4 B,2 | D12 | z4 z4 F2 G2 | A6 G2 F2 E2 | G8 z4 | A4 B4 A4 | c4 B2 A2 G4 | A6 G2 F2 E2 | %16
 G8 F4 | G4 A6 G2 | G4 E2 F2 A2 G2 | E2 F2 E2 C2 D4 | E12 || E6 D2 D4 | G4 A6 B2 | c4 c4 z4 | %24
 c4 c8 | B2 G4 A2 F4 | G4 A6 G2 | B4 B8 | z12 | B8 A4 | B4 c8 | B8 A4 | G4 E2 F2 A2 G2 | %33
 E2 F2 E2 C2 D4 | E12 | z4 z4 D4 | G4 A6 B2 | c6 B2 B2 A2 | c8 c4 | B2 A2 G4 F2 E2 | G4 z4 z4 | %41
 F4 A6 G2 | G6 E2 F2 E2 | D6 C4 B,2 | D12 | z4 z4 F2 G2 | A6 G2 F2 E2 | G8 z4 | A4 B6 A2 | %49
 c4 c2 B2 G4 | A6 G2 F2 E2 | G8 F4 | G6 A4 G2 | G4 E2 F2 A2 G2 | E2 F2 E2 C2 D4 | E12 || c6 B2 B4 | %57
 c4 d6 B2 | d4 c6 B2 | B2 d2 B2 G2 A4 | G4 z4 z4 | B4 c6 B2 | d4 B6 c2 | d4 c4 c2 B2- | %64
 B2 A2 G4 F2 E2 | G4 z4 z4 | F4 A6 G2 | G6 E2 F2 E2 | D6 C4 B,2 | D12 | z4 z4 F2 G2 | A6 G2 F2 E2 | %72
 G8 z4 | A4 B6 A2 | c4 c2 B2 G4 | A6 G2 F2 E2 | G8 F4 | G4 A6 G2 | G4 E2 F2 A2 G2 | %79
 E2 F2 E2 C2 D4 | E12 |] %81
V:2
 d12 | e12 | d4 B2 G2 A4 | e4 e6 d2 | B8 c4 | d4 e2 d2 c2 B2 | d12 | B6 A2 c2 A2 | A8 G4 | %9
 A6 d2 d2 c2 | c4 c4 c2 d2 | e4 A2 B2 c4 | d8 e4 | A4 G8 | c2 f2 f2 e2 c2 B2 | d4 c6 B2 | %16
 d4 z4 c4 | d4 e6 d2 | B4 A2 c2 c2 B2 | c4 B2 G2 A4 | B12 || B6 A2 B4 | c4 d6 c2 | e8 c4 | A4 e8 | %25
 e2 c2 B4 c4 | d4 e6 d2 | d12 | z12 | d8 A4 | d4 e8 | e2 d2 B4 c4 | B4 A2 c4 B2 | c4 B2 G2 A4 | %34
 B8 c4 | B6 G2 A4 | B2 c2 d6 c2 | e4 z4 e4 | c2 e4 d2 A4 | G4 d2 B2 c4 | d4 e2 d2 c2 B2 | d4 d8 | %42
 B6 G2 c2 B2 | A8 G4 | A6 d2 c2 B2 | c8 c2 d2 | e4 A2 B2 c4 | d8 e4 | A4 G8 | c2 f4 e2 c2 B2 | %50
 d4 c6 B2 | d4 z4 c4 | d4 e6 d2 | B4 A2 c4 B2 | c4 B2 G2 A4 | B12 || c4 f6 d2 | c4 G8 | B4 z4 e4- | %59
 e2 d2 d6 A2 | d4 B6 G2 | B4 A8 | D4 G4 z4 | d4 e6 B2 | e4 d2 B2 c4 | d2 e4 d2 c2 B2 | d4 d8 | %67
 B6 G2 c2 A2 | A8 G4 | A6 d2 d2 B2 | c8 c2 d2 | e4 A2 B2 c4 | d8 e4 | A4 G8 | c2 f4 e2 c2 B2 | %75
 d4 c6 B2 | d4 z4 c4 | d4 e6 d2 | B4 A2 c4 B2 | c4 B2 G2 A4 | B12 |] %81
V:3
 G12 | c12 | G8 c4 | A8 A4 | d4 B2 G2 A4 | G8 E4 | D8 F4 | E4 G4 A4 | F6 D2 E4 | D8 F2 G2 | %10
 A8 A2 B2 | A4 c2 G2 A4 | G8 c4 | c4 d8 | A4 F2 G2 E4 | D4 A8 | G8 A4 | B4 A2 c4 B2 | G4 A6 E2 | %19
 A4 G2 E2 F4 | E12 || E6 F2 G4 | E4 D8 | A8 A4 | c4 A8 | G8 A4 | B4 c6 B2 | G12 | z12 | G8 c4 | %30
 B4 A8 | G8 A4 | E4 A6 E2 | A4 G2 E2 F4 | E12 | G8 F4 | E4 D8 | A8 G4 | A8 c4 | d4 B2 G2 A4 | %40
 G8 E4 | D8 F4 | E4 G4 A4 | F6 D2 E4 | D8 F2 G2 | A8 A2 B2 | A4 c2 G2 A4 | G8 c4- | c4 d8 | %49
 A4 F2 G2 E4 | D4 A8 | G8 A4 | B4 A2 c4 B2 | G4 A6 E2 | A4 G2 E2 F4 | E12 || c6 G2 G4 | A4 B6 G2 | %58
 G4 A6 G2 | G4 D2 G4 F2 | G8 d4- | d4 e8 | d6 B2 d2 c2 | B4 A6 G2 | G2 c2 B2 G2 A4 | G8 E4 | %66
 D8 F4 | E4 G4 A4 | F6 D2 E4 | D8 F2 G2 | A8 A2 B2 | A4 c2 G2 A4 | G8 c4- | c4 d8 | A4 F2 G2 E4 | %75
 D4 A8 | G8 A4 | B4 A2 c4 B2 | G4 A6 E2 | A4 G2 E2 F4 | E12 |] %81

